src/svgs/platformio.svg

<?xml version="1.0" encoding="UTF-8" standalone="no"?>
<svg
   width="32"
   height="32"
   preserveAspectRatio="xMidYMid"
   version="1.1"
   id="svg1158"
   xmlns="http://www.w3.org/2000/svg"
   xmlns:svg="http://www.w3.org/2000/svg">
  <defs
     id="defs1162" />
  <path
     id="path1152"
     d="M 11.638672 5.6875 C 10.945672 5.6875 10.384766 6.2313437 10.384766 6.9023438 C 10.384766 7.5723438 10.942812 8.1141875 11.632812 8.1171875 L 12.244141 10.351562 C 9.8601406 11.117563 7.2753906 12.793938 7.2753906 16.460938 C 7.3283158 21.754455 14.495826 26.490547 16.164062 26.503906 L 16.171875 26.505859 C 17.826875 26.505859 25.066984 21.659938 25.083984 16.460938 C 25.083984 12.736938 22.529297 11.0635 20.154297 10.3125 L 20.779297 8.1308594 C 21.419297 8.0758594 21.921875 7.5549219 21.921875 6.9199219 C 21.921875 6.2489219 21.360969 5.7050781 20.667969 5.7050781 C 19.974969 5.7050781 19.412109 6.2489219 19.412109 6.9199219 C 19.412109 7.3619219 19.656484 7.7489375 20.021484 7.9609375 L 19.408203 10.103516 C 17.653203 9.6715156 16.171875 9.703125 16.171875 9.703125 C 16.171875 9.703125 14.681875 9.6972969 12.921875 10.154297 L 12.3125 7.9277344 C 12.6615 7.7117344 12.892578 7.3333437 12.892578 6.9023438 C 12.892578 6.2313438 12.331672 5.6875 11.638672 5.6875 z M 10.923828 12.978516 C 11.055244 12.973111 11.186 12.980375 11.3125 13 C 15.0015 13.728 15.597547 18.815 14.185547 21 L 14.185547 21.001953 C 13.195547 22.201953 7.7762656 17.951969 8.6972656 14.917969 C 9.0166406 13.666719 10.003916 13.016346 10.923828 12.978516 z M 21.673828 12.978516 C 22.593262 13.015498 23.581016 13.665844 23.900391 14.917969 C 24.821098 17.951006 19.404606 22.199114 18.412109 21.001953 C 17.000109 18.815953 17.596156 13.728953 21.285156 13.001953 C 21.411531 12.982203 21.54248 12.973232 21.673828 12.978516 z M 20.626953 16.318359 C 19.996953 16.318359 19.484375 16.813781 19.484375 17.425781 C 19.484375 18.036781 19.995953 18.533203 20.626953 18.533203 C 21.257953 18.533203 21.769531 18.036781 21.769531 17.425781 C 21.769531 16.813781 21.257953 16.318359 20.626953 16.318359 z M 11.898438 16.353516 C 11.268438 16.353516 10.755859 16.848937 10.755859 17.460938 C 10.755859 18.071938 11.267437 18.566406 11.898438 18.566406 C 12.529438 18.566406 13.041016 18.071937 13.041016 17.460938 C 13.041016 16.848937 12.529438 16.353516 11.898438 16.353516 z M 20.96875 16.779297 C 21.12875 16.779297 21.255859 16.906547 21.255859 17.060547 C 21.255859 17.215547 21.12775 17.339844 20.96875 17.339844 A 0.284 0.284 0 0 1 20.679688 17.060547 C 20.679688 16.906547 20.80975 16.779297 20.96875 16.779297 z M 11.556641 16.814453 C 11.715641 16.814453 11.845703 16.940703 11.845703 17.095703 C 11.845703 17.249703 11.714641 17.375 11.556641 17.375 L 11.556641 17.373047 A 0.284 0.284 0 0 1 11.267578 17.09375 C 11.267578 16.93975 11.396641 16.814453 11.556641 16.814453 z " />
</svg>

<svg width="32" height="32" xmlns="http://www.w3.org/2000/svg" preserveAspectRatio="xMidYMid"><g stroke="null"><path d="M20.155 10.313l.625-2.183c.64-.055 1.142-.575 1.142-1.21 0-.671-.562-1.215-1.255-1.215-.693 0-1.254.544-1.254 1.215 0 .442.244.828.609 1.04l-.614 2.144c-1.755-.432-3.237-.4-3.237-.4l-.274.12v16.592l.274.089c1.655 0 8.896-4.845 8.913-10.044 0-3.724-2.555-5.397-4.93-6.148zm-1.743 10.688c-1.412-2.186-.815-7.273 2.874-8 1.011-.158 2.25.486 2.615 1.917.921 3.034-4.5 7.284-5.49 6.083zm2.214-4.682c-.63 0-1.142.495-1.142 1.107 0 .611.511 1.107 1.142 1.107.631 0 1.143-.496 1.143-1.107 0-.612-.512-1.107-1.143-1.107zm.342 1.021a.284.284 0 01-.289-.28c0-.154.13-.28.289-.28.16 0 .288.126.288.28 0 .155-.129.28-.288.28z" fill="#D06E35"/><path d="M12.922 10.154l-.61-2.226c.349-.216.581-.594.581-1.025 0-.671-.561-1.216-1.254-1.216s-1.254.545-1.254 1.216c0 .67.558 1.212 1.248 1.215l.612 2.233c-2.384.766-4.97 2.443-4.97 6.11.053 5.301 7.241 10.043 8.896 10.043v-16.8s-1.489-.007-3.249.45zm1.264 10.847c-.99 1.2-6.41-3.049-5.489-6.083.365-1.43 1.603-2.075 2.615-1.918 3.689.728 4.286 5.815 2.874 8zm-2.288-4.648c-.63 0-1.142.495-1.142 1.107 0 .611.511 1.107 1.142 1.107.631 0 1.143-.496 1.143-1.107 0-.612-.512-1.107-1.143-1.107zm-.341 1.021a.284.284 0 01-.29-.28c0-.154.13-.279.29-.279.159 0 .288.125.288.28 0 .154-.13.28-.288.28z" fill="#F17B36"/></g></svg>
